svg/color/evry.svg

<?xml version="1.0" encoding="UTF-8" ?>
<!DOCTYPE svg PUBLIC "-//W3C//DTD SVG 1.1//EN" "http://www.w3.org/Graphics/SVG/1.1/DTD/svg11.dtd">
<svg width="250pt" height="250pt" viewBox="0 0 250 250" version="1.1" xmlns="http://www.w3.org/2000/svg">
<g id="#ffffffff">
<path fill="#ffffff" opacity="1.00" d=" M 0.00 0.00 L 250.00 0.00 L 250.00 250.00 L 0.00 250.00 L 0.00 0.00 M 102.81 62.85 C 97.29 65.11 92.15 68.14 86.90 70.94 C 81.19 73.86 75.52 76.84 69.89 79.91 C 64.17 82.83 58.50 85.83 52.87 88.90 C 44.96 92.93 37.17 97.20 29.26 101.23 C 27.12 102.39 24.85 103.43 23.11 105.17 C 21.64 106.84 22.39 109.63 24.21 110.76 C 28.10 113.54 33.28 116.50 38.07 114.11 C 43.56 111.55 48.78 108.45 54.15 105.66 C 59.86 102.73 65.54 99.75 71.17 96.67 C 76.88 93.73 82.58 90.75 88.22 87.68 C 93.47 85.00 98.67 82.25 103.82 79.41 C 109.45 76.52 114.98 73.40 120.92 71.15 C 122.62 71.21 124.32 71.25 126.02 71.38 C 131.93 71.72 136.83 75.40 142.03 77.80 C 149.14 81.76 156.43 85.41 163.69 89.11 C 171.79 93.66 180.19 97.67 188.33 102.18 C 196.26 105.93 203.79 110.47 211.69 114.26 C 215.58 116.40 219.78 114.14 223.22 112.21 C 225.09 111.09 227.67 109.64 227.23 107.06 C 226.96 104.36 223.98 103.33 221.98 102.09 C 210.49 96.31 199.18 90.19 187.71 84.35 C 179.34 79.78 170.84 75.44 162.35 71.09 C 156.93 68.07 151.39 65.27 145.88 62.43 C 138.43 58.63 131.22 53.42 122.49 53.45 C 115.46 55.44 108.85 58.80 102.81 62.85 M 115.45 90.55 C 110.04 93.89 103.97 96.13 98.79 99.84 C 93.97 101.82 89.41 104.34 84.89 106.90 C 79.81 109.43 74.77 112.08 69.81 114.86 C 64.39 117.57 59.03 120.40 53.72 123.30 C 45.30 127.61 37.01 132.18 28.57 136.45 C 26.49 137.74 23.64 138.68 22.73 141.15 C 21.67 144.45 25.26 146.12 27.57 147.45 C 36.50 152.00 45.33 156.75 54.27 161.29 C 59.75 164.28 65.30 167.16 70.88 169.98 C 76.53 173.04 82.21 176.03 87.96 178.90 C 94.42 182.42 100.98 185.77 107.49 189.21 C 111.12 191.03 114.60 193.13 118.36 194.67 C 121.89 196.18 125.81 195.95 129.56 195.96 C 138.49 192.39 146.78 187.43 155.29 183.00 C 165.86 177.45 176.44 171.91 186.98 166.31 C 199.05 159.91 211.15 153.54 223.28 147.25 C 225.56 146.11 228.35 144.10 227.29 141.15 C 225.76 138.15 222.17 137.09 219.35 135.66 C 216.43 134.11 213.05 134.79 210.32 136.37 C 201.22 141.28 192.04 146.06 182.93 150.95 C 173.41 155.76 164.10 160.98 154.60 165.84 C 145.74 170.19 137.44 175.84 127.98 178.85 C 120.74 179.08 114.41 175.48 108.26 172.16 C 102.16 168.82 95.97 165.65 89.78 162.47 C 84.01 159.37 78.21 156.32 72.36 153.36 C 66.74 150.25 60.82 147.66 55.58 143.90 C 55.65 142.66 55.67 141.43 55.64 140.19 C 60.00 137.17 64.89 134.21 70.43 134.86 C 75.11 137.89 80.12 140.32 85.07 142.87 C 89.61 145.36 94.18 147.78 98.79 150.11 C 104.40 153.21 110.15 156.04 115.70 159.23 C 122.34 162.34 130.08 161.59 136.28 157.83 C 144.72 152.98 153.70 149.11 161.98 143.99 C 171.01 139.99 179.55 134.89 188.44 130.54 C 190.65 129.19 194.11 128.14 194.07 125.00 C 194.24 122.41 191.67 121.22 189.79 120.14 C 179.67 114.86 169.50 109.68 159.42 104.33 C 151.72 100.24 143.92 96.34 136.28 92.14 C 130.03 88.28 122.21 87.44 115.45 90.55 Z" />
<path fill="#ffffff" opacity="1.00" d=" M 116.70 107.75 C 122.58 105.35 129.34 105.87 134.88 108.93 C 142.88 113.03 150.67 117.57 158.86 121.31 C 159.48 122.55 160.15 123.77 160.81 125.00 C 160.15 126.23 159.47 127.44 158.82 128.68 C 150.63 132.44 142.83 136.96 134.81 141.06 C 129.56 143.93 123.20 144.52 117.58 142.38 C 111.56 139.66 105.90 136.23 99.97 133.33 C 96.66 131.56 93.15 130.08 90.25 127.66 C 88.50 126.48 88.32 123.46 90.12 122.24 C 93.04 119.76 96.64 118.26 99.99 116.46 C 105.63 113.69 111.05 110.50 116.70 107.75 Z" />
</g>
<g id="#7bcbb1ff">
<path fill="#7bcbb1" opacity="1.00" d=" M 102.81 62.85 C 108.85 58.80 115.46 55.44 122.49 53.45 C 121.17 59.25 120.75 65.21 120.92 71.15 C 114.98 73.40 109.45 76.52 103.82 79.41 C 103.18 73.92 102.64 68.39 102.81 62.85 Z" />
</g>
<g id="#7dca9fff">
<path fill="#7dca9f" opacity="1.00" d=" M 122.49 53.45 C 131.22 53.42 138.43 58.63 145.88 62.43 C 143.72 64.80 140.97 66.98 140.06 70.18 C 139.82 72.86 140.95 75.41 142.03 77.80 C 136.83 75.40 131.93 71.72 126.02 71.38 C 124.32 71.25 122.62 71.21 120.92 71.15 C 120.75 65.21 121.17 59.25 122.49 53.45 Z" />
</g>
<g id="#78ccc3ff">
<path fill="#78ccc3" opacity="1.00" d=" M 86.90 70.94 C 92.15 68.14 97.29 65.11 102.81 62.85 C 102.64 68.39 103.18 73.92 103.82 79.41 C 98.67 82.25 93.47 85.00 88.22 87.68 C 86.91 82.20 86.65 76.55 86.90 70.94 Z" />
</g>
<g id="#80c98aff">
<path fill="#80c98a" opacity="1.00" d=" M 140.06 70.18 C 140.97 66.98 143.72 64.80 145.88 62.43 C 151.39 65.27 156.93 68.07 162.35 71.09 C 160.46 77.02 160.25 83.69 163.69 89.11 C 156.43 85.41 149.14 81.76 142.03 77.80 C 140.95 75.41 139.82 72.86 140.06 70.18 Z" />
</g>
<g id="#76cdd2ff">
<path fill="#76cdd2" opacity="1.00" d=" M 69.89 79.91 C 75.52 76.84 81.19 73.86 86.90 70.94 C 86.65 76.55 86.91 82.20 88.22 87.68 C 82.58 90.75 76.88 93.73 71.17 96.67 C 69.95 91.17 69.67 85.53 69.89 79.91 Z" />
<path fill="#76cdd2" opacity="1.00" d=" M 69.81 114.86 C 74.77 112.08 79.81 109.43 84.89 106.90 C 85.14 118.89 84.93 130.88 85.07 142.87 C 80.12 140.32 75.11 137.89 70.43 134.86 C 70.07 128.20 69.87 121.53 69.81 114.86 Z" />
<path fill="#76cdd2" opacity="1.00" d=" M 70.88 169.98 C 70.65 164.40 70.98 158.79 72.36 153.36 C 78.21 156.32 84.01 159.37 89.78 162.47 C 89.07 167.94 88.49 173.42 87.96 178.90 C 82.21 176.03 76.53 173.04 70.88 169.98 Z" />
</g>
<g id="#83c774ff">
<path fill="#83c774" opacity="1.00" d=" M 163.69 89.11 C 160.25 83.69 160.46 77.02 162.35 71.09 C 170.84 75.44 179.34 79.78 187.71 84.35 C 186.82 90.28 186.88 96.34 188.33 102.18 C 180.19 97.67 171.79 93.66 163.69 89.11 Z" />
</g>
<g id="#74cee3ff">
<path fill="#74cee3" opacity="1.00" d=" M 52.87 88.90 C 58.50 85.83 64.17 82.83 69.89 79.91 C 69.67 85.53 69.95 91.17 71.17 96.67 C 65.54 99.75 59.86 102.73 54.15 105.66 C 52.92 100.16 52.65 94.52 52.87 88.90 Z" />
</g>
<g id="#87c556ff">
<path fill="#87c556" opacity="1.00" d=" M 188.33 102.18 C 186.88 96.34 186.82 90.28 187.71 84.35 C 199.18 90.19 210.49 96.31 221.98 102.09 C 223.98 103.33 226.96 104.36 227.23 107.06 C 227.67 109.64 225.09 111.09 223.22 112.21 C 219.78 114.14 215.58 116.40 211.69 114.26 C 203.79 110.47 196.26 105.93 188.33 102.18 Z" />
</g>
<g id="#71cff5ff">
<path fill="#71cff5" opacity="1.00" d=" M 29.26 101.23 C 37.17 97.20 44.96 92.93 52.87 88.90 C 52.65 94.52 52.92 100.16 54.15 105.66 C 48.78 108.45 43.56 111.55 38.07 114.11 C 33.28 116.50 28.10 113.54 24.21 110.76 C 22.39 109.63 21.64 106.84 23.11 105.17 C 24.85 103.43 27.12 102.39 29.26 101.23 Z" />
</g>
<g id="#7ccaa5ff">
<path fill="#7ccaa5" opacity="1.00" d=" M 115.45 90.55 C 122.21 87.44 130.03 88.28 136.28 92.14 C 133.33 97.30 133.78 103.31 134.88 108.93 C 129.34 105.87 122.58 105.35 116.70 107.75 C 114.40 102.29 114.74 96.30 115.45 90.55 Z" />
<path fill="#7ccaa5" opacity="1.00" d=" M 117.58 142.38 C 123.20 144.52 129.56 143.93 134.81 141.06 C 133.69 146.67 133.33 152.68 136.28 157.83 C 130.08 161.59 122.34 162.34 115.70 159.23 C 115.13 153.59 113.52 147.16 117.58 142.38 Z" />
</g>
<g id="#7acbb7ff">
<path fill="#7acbb7" opacity="1.00" d=" M 98.79 99.84 C 103.97 96.13 110.04 93.89 115.45 90.55 C 114.74 96.30 114.40 102.29 116.70 107.75 C 111.05 110.50 105.63 113.69 99.99 116.46 C 99.15 110.96 98.58 105.41 98.79 99.84 Z" />
</g>
<g id="#7fc991ff">
<path fill="#7fc991" opacity="1.00" d=" M 134.88 108.93 C 133.78 103.31 133.33 97.30 136.28 92.14 C 143.92 96.34 151.72 100.24 159.42 104.33 C 156.29 109.52 156.02 115.92 158.86 121.31 C 150.67 117.57 142.88 113.03 134.88 108.93 Z" />
<path fill="#7fc991" opacity="1.00" d=" M 134.81 141.06 C 142.83 136.96 150.63 132.44 158.82 128.68 C 156.64 133.49 156.82 138.88 157.01 144.04 C 158.66 144.04 160.32 144.05 161.98 143.99 C 153.70 149.11 144.72 152.98 136.28 157.83 C 133.33 152.68 133.69 146.67 134.81 141.06 Z" />
</g>
<g id="#78ccc6ff">
<path fill="#78ccc6" opacity="1.00" d=" M 84.89 106.90 C 89.41 104.34 93.97 101.82 98.79 99.84 C 98.58 105.41 99.15 110.96 99.99 116.46 C 96.64 118.26 93.04 119.76 90.12 122.24 C 88.32 123.46 88.50 126.48 90.25 127.66 C 93.15 130.08 96.66 131.56 99.97 133.33 C 99.11 138.88 98.81 144.49 98.79 150.11 C 94.18 147.78 89.61 145.36 85.07 142.87 C 84.93 130.88 85.14 118.89 84.89 106.90 Z" />
</g>
<g id="#82c779ff">
<path fill="#82c779" opacity="1.00" d=" M 158.86 121.31 C 156.02 115.92 156.29 109.52 159.42 104.33 C 169.50 109.68 179.67 114.86 189.79 120.14 C 191.67 121.22 194.24 122.41 194.07 125.00 C 194.11 128.14 190.65 129.19 188.44 130.54 C 179.55 134.89 171.01 139.99 161.98 143.99 C 160.32 144.05 158.66 144.04 157.01 144.04 C 156.82 138.88 156.64 133.49 158.82 128.68 C 159.47 127.44 160.15 126.23 160.81 125.00 C 160.15 123.77 159.48 122.55 158.86 121.31 Z" />
</g>
<g id="#74cee2ff">
<path fill="#74cee2" opacity="1.00" d=" M 53.72 123.30 C 59.03 120.40 64.39 117.57 69.81 114.86 C 69.87 121.53 70.07 128.20 70.43 134.86 C 64.89 134.21 60.00 137.17 55.64 140.19 C 55.48 134.52 54.83 128.87 53.72 123.30 Z" />
<path fill="#74cee2" opacity="1.00" d=" M 55.58 143.90 C 60.82 147.66 66.74 150.25 72.36 153.36 C 70.98 158.79 70.65 164.40 70.88 169.98 C 65.30 167.16 59.75 164.28 54.27 161.29 C 54.74 155.49 55.24 149.70 55.58 143.90 Z" />
</g>
<g id="#71cff4ff">
<path fill="#71cff4" opacity="1.00" d=" M 28.57 136.45 C 37.01 132.18 45.30 127.61 53.72 123.30 C 54.83 128.87 55.48 134.52 55.64 140.19 C 55.67 141.43 55.65 142.66 55.58 143.90 C 55.24 149.70 54.74 155.49 54.27 161.29 C 45.33 156.75 36.50 152.00 27.57 147.45 C 25.26 146.12 21.67 144.45 22.73 141.15 C 23.64 138.68 26.49 137.74 28.57 136.45 Z" />
</g>
<g id="#7acbb6ff">
<path fill="#7acbb6" opacity="1.00" d=" M 98.79 150.11 C 98.81 144.49 99.11 138.88 99.97 133.33 C 105.90 136.23 111.56 139.66 117.58 142.38 C 113.52 147.16 115.13 153.59 115.70 159.23 C 110.15 156.04 104.40 153.21 98.79 150.11 Z" />
</g>
<g id="#87c559ff">
<path fill="#87c559" opacity="1.00" d=" M 210.32 136.37 C 213.05 134.79 216.43 134.11 219.35 135.66 C 222.17 137.09 225.76 138.15 227.29 141.15 C 228.35 144.10 225.56 146.11 223.28 147.25 C 211.15 153.54 199.05 159.91 186.98 166.31 C 185.79 165.97 184.60 165.65 183.41 165.32 C 183.19 160.53 183.02 155.74 182.93 150.95 C 192.04 146.06 201.22 141.28 210.32 136.37 Z" />
</g>
<g id="#82c87aff">
<path fill="#82c87a" opacity="1.00" d=" M 154.60 165.84 C 164.10 160.98 173.41 155.76 182.93 150.95 C 183.02 155.74 183.19 160.53 183.41 165.32 C 184.60 165.65 185.79 165.97 186.98 166.31 C 176.44 171.91 165.86 177.45 155.29 183.00 C 151.79 177.77 153.00 171.48 154.60 165.84 Z" />
</g>
<g id="#79ccc0ff">
<path fill="#79ccc0" opacity="1.00" d=" M 87.96 178.90 C 88.49 173.42 89.07 167.94 89.78 162.47 C 95.97 165.65 102.16 168.82 108.26 172.16 C 106.74 177.72 106.70 183.53 107.49 189.21 C 100.98 185.77 94.42 182.42 87.96 178.90 Z" />
</g>
<g id="#7ec995ff">
<path fill="#7ec995" opacity="1.00" d=" M 127.98 178.85 C 137.44 175.84 145.74 170.19 154.60 165.84 C 153.00 171.48 151.79 177.77 155.29 183.00 C 146.78 187.43 138.49 192.39 129.56 195.96 C 127.97 190.40 127.64 184.60 127.98 178.85 Z" />
</g>
<g id="#7bcbacff">
<path fill="#7bcbac" opacity="1.00" d=" M 107.49 189.21 C 106.70 183.53 106.74 177.72 108.26 172.16 C 114.41 175.48 120.74 179.08 127.98 178.85 C 127.64 184.60 127.97 190.40 129.56 195.96 C 125.81 195.95 121.89 196.18 118.36 194.67 C 114.60 193.13 111.12 191.03 107.49 189.21 Z" />
</g>
</svg>

<?xml version="1.0" encoding="utf-8"?>
<!-- Generator: Adobe Illustrator 26.0.3, SVG Export Plug-In . SVG Version: 6.00 Build 0)  -->
<svg version="1.1" id="Layer_1" xmlns="http://www.w3.org/2000/svg" xmlns:xlink="http://www.w3.org/1999/xlink" x="0px" y="0px"
	 viewBox="0 0 250 250" style="enable-background:new 0 0 250 250;" xml:space="preserve">
<style type="text/css">
	.st0{fill:#FFFFFF;}
	.st1{fill:#7BCBB1;}
	.st2{fill:#7DCA9F;}
	.st3{fill:#78CCC3;}
	.st4{fill:#80C98A;}
	.st5{fill:#76CDD2;}
	.st6{fill:#83C774;}
	.st7{fill:#74CEE3;}
	.st8{fill:#87C556;}
	.st9{fill:#71CFF5;}
	.st10{fill:#7CCAA5;}
	.st11{fill:#7ACBB7;}
	.st12{fill:#7FC991;}
	.st13{fill:#78CCC6;}
	.st14{fill:#82C779;}
	.st15{fill:#74CEE2;}
	.st16{fill:#71CFF4;}
	.st17{fill:#7ACBB6;}
	.st18{fill:#87C559;}
	.st19{fill:#82C87A;}
	.st20{fill:#79CCC0;}
	.st21{fill:#7EC995;}
	.st22{fill:#7BCBAC;}
</style>
<g id="_x23_ffffffff">
	<path class="st0" d="M116.7,107.8c5.9-2.4,12.6-1.9,18.2,1.2c8,4.1,15.8,8.6,24,12.4c0.6,1.2,1.3,2.5,1.9,3.7
		c-0.7,1.2-1.3,2.4-2,3.7c-8.2,3.8-16,8.3-24,12.4c-5.2,2.9-11.6,3.5-17.2,1.3c-6-2.7-11.7-6.2-17.6-9.1c-3.3-1.8-6.8-3.2-9.7-5.7
		c-1.8-1.2-1.9-4.2-0.1-5.4c2.9-2.5,6.5-4,9.9-5.8C105.6,113.7,111.1,110.5,116.7,107.8z"/>
</g>
<g id="_x23_7bcbb1ff">
	<path class="st1" d="M102.8,62.8c6-4,12.7-7.4,19.7-9.4c-1.3,5.8-1.7,11.8-1.6,17.7c-5.9,2.2-11.5,5.4-17.1,8.3
		C103.2,73.9,102.6,68.4,102.8,62.8z"/>
</g>
<g id="_x23_7dca9fff">
	<path class="st2" d="M122.5,53.5c8.7,0,15.9,5.2,23.4,9c-2.2,2.4-4.9,4.6-5.8,7.8c-0.2,2.7,0.9,5.2,2,7.6c-5.2-2.4-10.1-6.1-16-6.4
		c-1.7-0.1-3.4-0.2-5.1-0.2C120.8,65.2,121.2,59.2,122.5,53.5z"/>
</g>
<g id="_x23_78ccc3ff">
	<path class="st3" d="M86.9,70.9c5.2-2.8,10.4-5.8,15.9-8.1c-0.2,5.5,0.4,11.1,1,16.6c-5.2,2.8-10.3,5.6-15.6,8.3
		C86.9,82.2,86.7,76.6,86.9,70.9z"/>
</g>
<g id="_x23_80c98aff">
	<path class="st4" d="M140.1,70.2c0.9-3.2,3.7-5.4,5.8-7.8c5.5,2.8,11,5.6,16.5,8.7c-1.9,5.9-2.1,12.6,1.3,18
		c-7.3-3.7-14.6-7.3-21.7-11.3C140.9,75.4,139.8,72.9,140.1,70.2z"/>
</g>
<g id="_x23_76cdd2ff">
	<path class="st5" d="M69.9,79.9c5.6-3.1,11.3-6.1,17-9c-0.2,5.6,0,11.3,1.3,16.7c-5.6,3.1-11.3,6.1-17.1,9
		C69.9,91.2,69.7,85.5,69.9,79.9z"/>
	<path class="st5" d="M69.8,114.9c5-2.8,10-5.4,15.1-8c0.2,12,0,24,0.2,36c-4.9-2.5-10-5-14.6-8C70.1,128.2,69.9,121.5,69.8,114.9z"
		/>
	<path class="st5" d="M70.9,170c-0.2-5.6,0.1-11.2,1.5-16.6c5.8,3,11.7,6,17.4,9.1c-0.7,5.5-1.3,10.9-1.8,16.4
		C82.2,176,76.5,173,70.9,170z"/>
</g>
<g id="_x23_83c774ff">
	<path class="st6" d="M163.7,89.1c-3.4-5.4-3.2-12.1-1.3-18c8.5,4.4,17,8.7,25.4,13.3c-0.9,5.9-0.8,12,0.6,17.8
		C180.2,97.7,171.8,93.7,163.7,89.1z"/>
</g>
<g id="_x23_74cee3ff">
	<path class="st7" d="M52.9,88.9c5.6-3.1,11.3-6.1,17-9c-0.2,5.6,0.1,11.3,1.3,16.8c-5.6,3.1-11.3,6.1-17,9
		C52.9,100.2,52.7,94.5,52.9,88.9z"/>
</g>
<g id="_x23_87c556ff">
	<path class="st8" d="M188.3,102.2c-1.4-5.8-1.5-11.9-0.6-17.8c11.5,5.8,22.8,12,34.3,17.7c2,1.2,5,2.3,5.2,5c0.4,2.6-2.1,4-4,5.2
		c-3.4,1.9-7.6,4.2-11.5,2.1C203.8,110.5,196.3,105.9,188.3,102.2z"/>
</g>
<g id="_x23_71cff5ff">
	<path class="st9" d="M29.3,101.2c7.9-4,15.7-8.3,23.6-12.3c-0.2,5.6,0,11.3,1.3,16.8c-5.4,2.8-10.6,5.9-16.1,8.4
		c-4.8,2.4-10-0.6-13.9-3.3c-1.8-1.1-2.6-3.9-1.1-5.6C24.9,103.4,27.1,102.4,29.3,101.2z"/>
</g>
<g id="_x23_7ccaa5ff">
	<path class="st10" d="M115.4,90.6c6.8-3.1,14.6-2.3,20.8,1.6c-2.9,5.2-2.5,11.2-1.4,16.8c-5.5-3.1-12.3-3.6-18.2-1.2
		C114.4,102.3,114.7,96.3,115.4,90.6z"/>
	<path class="st10" d="M117.6,142.4c5.6,2.1,12,1.5,17.2-1.3c-1.1,5.6-1.5,11.6,1.5,16.8c-6.2,3.8-13.9,4.5-20.6,1.4
		C115.1,153.6,113.5,147.2,117.6,142.4z"/>
</g>
<g id="_x23_7acbb7ff">
	<path class="st11" d="M98.8,99.8c5.2-3.7,11.2-5.9,16.7-9.3c-0.7,5.8-1,11.7,1.2,17.2c-5.6,2.8-11.1,5.9-16.7,8.7
		C99.2,111,98.6,105.4,98.8,99.8z"/>
</g>
<g id="_x23_7fc991ff">
	<path class="st12" d="M134.9,108.9c-1.1-5.6-1.6-11.6,1.4-16.8c7.6,4.2,15.4,8.1,23.1,12.2c-3.1,5.2-3.4,11.6-0.6,17
		C150.7,117.6,142.9,113,134.9,108.9z"/>
	<path class="st12" d="M134.8,141.1c8-4.1,15.8-8.6,24-12.4c-2.2,4.8-2,10.2-1.8,15.4c1.7,0,3.3,0,5,0c-8.3,5.1-17.3,9-25.7,13.8
		C133.3,152.7,133.7,146.7,134.8,141.1z"/>
</g>
<g id="_x23_78ccc6ff">
	<path class="st13" d="M84.9,106.9c4.5-2.6,9.1-5.1,13.9-7.1c-0.2,5.6,0.4,11.1,1.2,16.6c-3.3,1.8-6.9,3.3-9.9,5.8
		c-1.8,1.2-1.6,4.2,0.1,5.4c2.9,2.4,6.4,3.9,9.7,5.7c-0.9,5.6-1.2,11.2-1.2,16.8c-4.6-2.3-9.2-4.8-13.7-7.2
		C84.9,130.9,85.1,118.9,84.9,106.9z"/>
</g>
<g id="_x23_82c779ff">
	<path class="st14" d="M158.9,121.3c-2.8-5.4-2.6-11.8,0.6-17c10.1,5.3,20.2,10.5,30.4,15.8c1.9,1.1,4.5,2.3,4.3,4.9
		c0,3.1-3.4,4.2-5.6,5.5c-8.9,4.4-17.4,9.5-26.5,13.5c-1.7,0.1-3.3,0-5,0c-0.2-5.2-0.4-10.5,1.8-15.4c0.6-1.2,1.3-2.4,2-3.7
		C160.1,123.8,159.5,122.6,158.9,121.3z"/>
</g>
<g id="_x23_74cee2ff">
	<path class="st15" d="M53.7,123.3c5.3-2.9,10.7-5.7,16.1-8.4c0.1,6.7,0.3,13.3,0.6,20c-5.5-0.6-10.4,2.3-14.8,5.3
		C55.5,134.5,54.8,128.9,53.7,123.3z"/>
	<path class="st15" d="M55.6,143.9c5.2,3.8,11.2,6.4,16.8,9.5c-1.4,5.4-1.7,11-1.5,16.6c-5.6-2.8-11.1-5.7-16.6-8.7
		C54.7,155.5,55.2,149.7,55.6,143.9z"/>
</g>
<g id="_x23_71cff4ff">
	<path class="st16" d="M28.6,136.4c8.4-4.3,16.7-8.8,25.2-13.1c1.1,5.6,1.8,11.2,1.9,16.9c0,1.2,0,2.5-0.1,3.7
		c-0.3,5.8-0.8,11.6-1.3,17.4c-8.9-4.5-17.8-9.3-26.7-13.8c-2.3-1.3-5.9-3-4.8-6.3C23.6,138.7,26.5,137.7,28.6,136.4z"/>
</g>
<g id="_x23_7acbb6ff">
	<path class="st17" d="M98.8,150.1c0-5.6,0.3-11.2,1.2-16.8c5.9,2.9,11.6,6.3,17.6,9.1c-4.1,4.8-2.5,11.2-1.9,16.8
		C110.2,156,104.4,153.2,98.8,150.1z"/>
</g>
<g id="_x23_87c559ff">
	<path class="st18" d="M210.3,136.4c2.7-1.6,6.1-2.3,9-0.7c2.8,1.4,6.4,2.5,7.9,5.5c1.1,3-1.7,5-4,6.1
		c-12.1,6.3-24.2,12.7-36.3,19.1c-1.2-0.3-2.4-0.7-3.6-1c-0.2-4.8-0.4-9.6-0.5-14.4C192,146.1,201.2,141.3,210.3,136.4z"/>
</g>
<g id="_x23_82c87aff">
	<path class="st19" d="M154.6,165.8c9.5-4.9,18.8-10.1,28.3-14.9c0.1,4.8,0.3,9.6,0.5,14.4c1.2,0.3,2.4,0.6,3.6,1
		c-10.5,5.6-21.1,11.1-31.7,16.7C151.8,177.8,153,171.5,154.6,165.8z"/>
</g>
<g id="_x23_79ccc0ff">
	<path class="st20" d="M88,178.9c0.5-5.5,1.1-11,1.8-16.4c6.2,3.2,12.4,6.4,18.5,9.7c-1.5,5.6-1.6,11.4-0.8,17.1
		C101,185.8,94.4,182.4,88,178.9z"/>
</g>
<g id="_x23_7ec995ff">
	<path class="st21" d="M128,178.9c9.5-3,17.8-8.7,26.6-13c-1.6,5.6-2.8,11.9,0.7,17.2c-8.5,4.4-16.8,9.4-25.7,13
		C128,190.4,127.6,184.6,128,178.9z"/>
</g>
<g id="_x23_7bcbacff">
	<path class="st22" d="M107.5,189.2c-0.8-5.7-0.8-11.5,0.8-17.1c6.2,3.3,12.5,6.9,19.7,6.7c-0.3,5.8,0,11.5,1.6,17.1
		c-3.8,0-7.7,0.2-11.2-1.3C114.6,193.1,111.1,191,107.5,189.2z"/>
</g>
</svg>
